X: 1
T: THE ROAST BEEF OF OLD ENGLAND
S: RD ex Blunt
O: Adderbury
B: Morris Ring
Z: 2005 John Chambers <jc@trillian.mit.edu>
M: 6/8
L: 1/8
K: D
P: A
A | d>ed c>de | g>ed e2c | d>ed c>dc | BF^G A2A | B=GB d>cB | AFD B3 ||
P: B
    e>fg c>BA | d3 A2F | G>AB A>dc | d3 A3 |
	e>fg c>BA | d3 A2F | G>AB A<dc | d6 ||
